resources/svg/solid/paint-roller.svg

<svg fill="currentColor" xmlns="http://www.w3.org/2000/svg" viewBox="0 0 512 512"><!--! Font Awesome Free 6.6.0 by @fontawesome - https://fontawesome.com License - https://fontawesome.com/license/free (Icons: CC BY 4.0, Fonts: SIL OFL 1.1, Code: MIT License) Copyright 2024 Fonticons, Inc. --><path d="M0 64C0 28.7 28.7 0 64 0L352 0c35.3 0 64 28.7 64 64l0 64c0 35.3-28.7 64-64 64L64 192c-35.3 0-64-28.7-64-64L0 64zM160 352c0-17.7 14.3-32 32-32l0-16c0-44.2 35.8-80 80-80l144 0c17.7 0 32-14.3 32-32l0-32 0-90.5c37.3 13.2 64 48.7 64 90.5l0 32c0 53-43 96-96 96l-144 0c-8.8 0-16 7.2-16 16l0 16c17.7 0 32 14.3 32 32l0 128c0 17.7-14.3 32-32 32l-64 0c-17.7 0-32-14.3-32-32l0-128z"/></svg>

<svg fill="currentColor" xmlns="http://www.w3.org/2000/svg" viewBox="0 0 512 512"><!--! Font Awesome Free 6.5.2 by @fontawesome - https://fontawesome.com License - https://fontawesome.com/license/free (Icons: CC BY 4.0, Fonts: SIL OFL 1.1, Code: MIT License) Copyright 2024 Fonticons, Inc. --><path d="M0 64C0 28.7 28.7 0 64 0H352c35.3 0 64 28.7 64 64v64c0 35.3-28.7 64-64 64H64c-35.3 0-64-28.7-64-64V64zM160 352c0-17.7 14.3-32 32-32V304c0-44.2 35.8-80 80-80H416c17.7 0 32-14.3 32-32V160 69.5c37.3 13.2 64 48.7 64 90.5v32c0 53-43 96-96 96H272c-8.8 0-16 7.2-16 16v16c17.7 0 32 14.3 32 32V480c0 17.7-14.3 32-32 32H192c-17.7 0-32-14.3-32-32V352z"/></svg>
